icons/src/plus.svg

<?xml version="1.0" encoding="UTF-8"?>
<!--Generator: Apple Native CoreSVG 341-->
<!DOCTYPE svg
PUBLIC "-//W3C//DTD SVG 1.1//EN"
       "http://www.w3.org/Graphics/SVG/1.1/DTD/svg11.dtd">
<svg version="1.1" xmlns="http://www.w3.org/2000/svg" xmlns:xlink="http://www.w3.org/1999/xlink" viewBox="0 0 16.4746 16.123">
 <g>
  <rect height="16.123" opacity="0" width="16.4746" x="0" y="0"/>
  <path d="M8.93555 15.2441L8.93555 0.869141C8.93555 0.400391 8.53516 0 8.05664 0C7.57812 0 7.1875 0.400391 7.1875 0.869141L7.1875 15.2441C7.1875 15.7129 7.57812 16.1133 8.05664 16.1133C8.53516 16.1133 8.93555 15.7129 8.93555 15.2441ZM0.869141 8.92578L15.2441 8.92578C15.7129 8.92578 16.1133 8.53516 16.1133 8.05664C16.1133 7.57812 15.7129 7.17773 15.2441 7.17773L0.869141 7.17773C0.400391 7.17773 0 7.57812 0 8.05664C0 8.53516 0.400391 8.92578 0.869141 8.92578Z" fill="white"/>
 </g>
</svg>

<!--Generator: Apple Native CoreSVG 341-->
<!DOCTYPE svg  PUBLIC '-//W3C//DTD SVG 1.1//EN'  'http://www.w3.org/Graphics/SVG/1.1/DTD/svg11.dtd'>
<svg version="1.1" viewBox="0 0 16.475 16.123" xmlns="http://www.w3.org/2000/svg">
 <rect width="16.475" height="16.123" opacity="0"/>
 <path d="m8.9356 15.244v-14.375c0-0.46875-0.40039-0.86914-0.87891-0.86914s-0.86914 0.40039-0.86914 0.86914v14.375c0 0.4688 0.39062 0.8692 0.86914 0.8692s0.87891-0.4004 0.87891-0.8692zm-8.0664-6.3183h14.375c0.4688 0 0.8692-0.39062 0.8692-0.86914s-0.4004-0.87891-0.8692-0.87891h-14.375c-0.46875 0-0.86914 0.40039-0.86914 0.87891s0.40039 0.86914 0.86914 0.86914z" fill="#fff"/>
</svg>
